X:1
T:Duke Of Athole
L:1/8
M:4/4
I:linebreak $
K:G
V:1 treble 
V:1
 E |"Am" A>BA<E A2 A<B |"G" G<DG>B d/c/B/A/ G>B |"Am" A>BA<E A2 A<B |"G" G<DB,>D"Am" E>A, A, :| %5
 e |$"Am" a>ea<c A/A/A e<a |"G" g>dg>e"Em" d/c/B/A/ G>e |"Am" a>ea<c A/A/A e<a | %9
"G" g>e"D"f>d"Em" e2 (3efg |$"Am" a>ea<c A/A/A e<a |"G" g>dg>e"Em" d/c/B/A/ G>B | %12
"Am" A<EA>B"C" c>AB<g |"G" G<DB,>D"Am" E>A, A, |] %14
